X: 1
T: Tom McKerron
C: Charlie McKerron
N: 3 Scots reels/3 reels écossais
S: Dominique Renaudin <domren:free.fr> IrishTradAccord 2004-3-1
%Q: 1/4=220
R: reel
M: 4/4
L: 1/8
K: A
  ga \
| ec (3ccc BcAF | EC (3CCC B,CA,B, | C2EC FCEC | DFAF EGBG \
| ec (3ccc BcAF | EC (3CCC B,CA,B, | C2EC DFAF | EGBG A2 :|
|: eg \
| ga2a feec | A2A2 FEEe | ae (3eee feec | Bcec B2ce \
| ga2a feec | A2A2 FEE2 | C2EC DFAF | EGBG A2 :| AB |:
